X:1
T:Calliope House
R:Jig
C:Dave Richardson
M:6/8
L:1/8
K:E
B|"E"eBB gBB| fBB gBB|"A"cff f2e|"B"fge cec|"E"BcB B2 G|"E"B2 c e2 f|
|1 "A"gbg gfe|"B"f3 f2:||2 "A"gbg "B"fec|e3 ega||:"E"b3 gbb|"E"fbb gbb|"A"a3 gag|
"B"f2e c2e|"E"B3 B2 G| B2 c e2 f|1 "A"gbg gfe|"B"f3 fga:||2 "A"gbg "B"fec|"E"e3 e2||
